svg/furkot/nps/biking.svg

<svg viewBox="0 0 512 512" xmlns="http://www.w3.org/2000/svg"><path d="m103.526 466.278c46.644 0 84.48-37.836 84.48-84.531 0-46.541-37.836-84.377-84.48-84.377-46.489 0-84.326 37.836-84.326 84.377 0 46.695 37.837 84.531 84.326 84.531zm-103.526-84.531c0-57.19 46.449-103.475 103.526-103.475 57.293 0 103.68 46.285 103.68 103.475 0 57.242-46.387 103.578-103.68 103.578-57.077 0-103.526-46.336-103.526-103.578zm408.474 85.504c46.489 0 84.326-37.785 84.326-84.48 0-46.592-37.837-84.377-84.326-84.377-46.644 0-84.48 37.785-84.48 84.377 0 46.695 37.836 84.48 84.48 84.48zm-103.68-84.48c0-57.241 46.438-103.526 103.68-103.526 57.088 0 103.526 46.285 103.526 103.526 0 57.293-46.438 103.629-103.526 103.629-57.242 0-103.68-46.336-103.68-103.629zm.307-252.723c21.504 0 38.963-17.357 38.963-38.81 0-21.504-17.459-39.014-38.963-39.014s-38.963 17.51-38.963 39.014c0 21.453 17.459 38.81 38.963 38.81z"/><path d="m306.688 224.563c-5.632.103-11.725-2.662-16.179-9.779l-25.293-39.526-52.224 51.66 48.435 25.498c19.866 9.523 16.896 27.034 16.896 27.034v109.568c0 12.39-10.035 22.528-22.425 22.528-12.442 0-22.426-10.138-22.426-22.528v-87.757l-83.917-46.592c-10.035-5.581-16.793-16.282-16.793-28.467 0-8.397 3.072-16.128 8.396-21.863l82.279-82.483c10.24-11.571 24.525-9.728 24.525-9.728 17.254 0 26.316 15.053 26.316 15.053l42.752 67.072 64.973-.154c23.347 0 23.347 30.464 0 30.464z"/></svg>

<svg xmlns="http://www.w3.org/2000/svg" viewBox="0 0 512 512"><path d="M103.526 466.278C150.17 466.278 188.006 428.442 188.006 381.747 188.006 335.206 150.17 297.37 103.526 297.37 57.037 297.37 19.2 335.206 19.2 381.747 19.2 428.442 57.037 466.278 103.526 466.278ZM0 381.747C0 324.557 46.449 278.272 103.526 278.272 160.819 278.272 207.206 324.557 207.206 381.747 207.206 438.989 160.819 485.325 103.526 485.325 46.449 485.325 0 438.989 0 381.747ZM408.474 467.251C454.963 467.251 492.8 429.466 492.8 382.771 492.8 336.179 454.963 298.394 408.474 298.394 361.83 298.394 323.994 336.179 323.994 382.771 323.994 429.466 361.83 467.251 408.474 467.251ZM304.794 382.771C304.794 325.53 351.232 279.245 408.474 279.245 465.562 279.245 512 325.53 512 382.771 512 440.064 465.562 486.4 408.474 486.4 351.232 486.4 304.794 440.064 304.794 382.771ZM305.101 130.048C326.605 130.048 344.064 112.691 344.064 91.238 344.064 69.734 326.605 52.224 305.101 52.224 283.597 52.224 266.138 69.734 266.138 91.238 266.138 112.691 283.597 130.048 305.101 130.048Z"/><path d="M306.688 224.563C301.056 224.666 294.963 221.901 290.509 214.784L265.216 175.258 212.992 226.918 261.427 252.416C281.293 261.939 278.323 279.45 278.323 279.45L278.323 389.018C278.323 401.408 268.288 411.546 255.898 411.546 243.456 411.546 233.472 401.408 233.472 389.018L233.472 301.261 149.555 254.669C139.52 249.088 132.762 238.387 132.762 226.202 132.762 217.805 135.834 210.074 141.158 204.339L223.437 121.856C233.677 110.285 247.962 112.128 247.962 112.128 265.216 112.128 274.278 127.181 274.278 127.181L317.03 194.253 382.003 194.099C405.35 194.099 405.35 224.563 382.003 224.563L306.688 224.563Z"/></svg>
